X: 26967
T: Miss Clementina Stewart Of Garth's Jigg
R: jig
M: 6/8
K: Dmajor
A|d2 d def|ecA AcA|Bcd AGF|
GEE E2 A|d2 d def|ecA AcA|BdB cec|d3 d2:|
|:g|fdf agf|ece efg|fdf agf|ecA (A2 g)
fdf agf|ece efg|fdf ece|d3 d2:|

